X:6386
T:Sweetest Lassie. HSJJ.154
O:england
M:2/4
L:1/8
Q:180
S:HSJ Jackson,Wyresdale,Lancs.1823
R:Cotillion
A:Lancashire
H:1823
K:D
ff/d/ gg/e/|afd2|efgf|e/f/e/d/ {d}cB/A/|ff/d/ gg/e/|afdA|B/d/g/e/ dc|ddd
2:|
|:ee/c/ ff/d/|gee2|ff/d/ gg/e/|aff2|ABcd|e/d/e/f/ ge|f/a/f/d/ e/f/e/c/|d
dd2:|]


